Catalina-light/status/22/nm-signal-50.svg

<?xml version="1.0" encoding="UTF-8" standalone="no"?>
<!-- Created with Inkscape (http://www.inkscape.org/) -->

<svg
   xmlns:dc="http://purl.org/dc/elements/1.1/"
   xmlns:cc="http://creativecommons.org/ns#"
   xmlns:rdf="http://www.w3.org/1999/02/22-rdf-syntax-ns#"
   xmlns:svg="http://www.w3.org/2000/svg"
   xmlns="http://www.w3.org/2000/svg"
   xmlns:xlink="http://www.w3.org/1999/xlink"
   xmlns:sodipodi="http://sodipodi.sourceforge.net/DTD/sodipodi-0.dtd"
   xmlns:inkscape="http://www.inkscape.org/namespaces/inkscape"
   id="svg7384"
   style="enable-background:new"
   height="22"
   width="22"
   version="1.1"
   inkscape:version="0.92.4 5da689c313, 2019-01-14"
   sodipodi:docname="nm-signal-50.svg">
  <sodipodi:namedview
     pagecolor="#ffffff"
     bordercolor="#666666"
     borderopacity="1"
     objecttolerance="10"
     gridtolerance="10"
     guidetolerance="10"
     inkscape:pageopacity="0"
     inkscape:pageshadow="2"
     inkscape:window-width="1920"
     inkscape:window-height="1030"
     id="namedview10"
     showgrid="true"
     inkscape:zoom="14.75"
     inkscape:cx="3.4540559"
     inkscape:cy="10.563527"
     inkscape:window-x="0"
     inkscape:window-y="26"
     inkscape:window-maximized="1"
     inkscape:current-layer="svg7384"
     showguides="true"
     inkscape:guide-bbox="true">
    <inkscape:grid
       type="xygrid"
       id="grid836" />
  </sodipodi:namedview>
  <metadata
     id="metadata90">
    <rdf:RDF>
      <cc:Work
         rdf:about="">
        <dc:format>image/svg+xml</dc:format>
        <dc:type
           rdf:resource="http://purl.org/dc/dcmitype/StillImage" />
        <dc:title>Paper Symbolic Icon Theme</dc:title>
      </cc:Work>
    </rdf:RDF>
  </metadata>
  <title
     id="title8473">Paper Symbolic Icon Theme</title>
  <defs
     id="defs7386">
    <filter
       id="filter7554"
       style="color-interpolation-filters:sRGB">
      <feBlend
         id="feBlend7556"
         in2="BackgroundImage"
         mode="darken" />
    </filter>
    <linearGradient
       gradientTransform="translate(-1,-2)"
       gradientUnits="userSpaceOnUse"
       xlink:href="#linearGradient3678"
       id="linearGradient2868"
       y2="19"
       x2="8.9254236"
       y1="5.9997859"
       x1="8.9254236" />
    <linearGradient
       id="linearGradient3678">
      <stop
         offset="0"
         style="stop-color:#ffffff;stop-opacity:1"
         id="stop3680" />
      <stop
         offset="1"
         style="stop-color:#e6e6e6;stop-opacity:1"
         id="stop3682" />
    </linearGradient>
    <linearGradient
       gradientTransform="translate(-2,-1)"
       gradientUnits="userSpaceOnUse"
       xlink:href="#linearGradient3678"
       id="linearGradient2393"
       y2="21"
       x2="9"
       y1="3"
       x1="9" />
    <linearGradient
       x1="14"
       y1="3"
       x2="14"
       y2="21"
       id="linearGradient2398"
       xlink:href="#linearGradient3587-6-5-3"
       gradientUnits="userSpaceOnUse"
       gradientTransform="translate(-1.0001235,-5)" />
    <linearGradient
       id="linearGradient3587-6-5-3">
      <stop
         id="stop3589-9-2-0"
         style="stop-color:#000000;stop-opacity:1"
         offset="0" />
      <stop
         id="stop3591-7-4-7"
         style="stop-color:#363636;stop-opacity:1"
         offset="1" />
    </linearGradient>
    <linearGradient
       x1="66.09668"
       y1="9.3638258"
       x2="66.09668"
       y2="27.363825"
       id="linearGradient2395"
       xlink:href="#linearGradient3587-6-5-3"
       gradientUnits="userSpaceOnUse"
       gradientTransform="translate(-52.096803,-11.363826)" />
    <linearGradient
       x1="4.9554448"
       y1="2.6841583"
       x2="4.9554448"
       y2="13.496136"
       id="linearGradient7390"
       xlink:href="#linearGradient3587-6-5-3"
       gradientUnits="userSpaceOnUse" />
    <linearGradient
       x1="7.9109159"
       y1="4.5762329"
       x2="7.9109159"
       y2="11.649005"
       id="linearGradient7392"
       xlink:href="#linearGradient3587-6-5-3"
       gradientUnits="userSpaceOnUse" />
    <linearGradient
       x1="10.186814"
       y1="2.7742527"
       x2="10.186814"
       y2="13.317288"
       id="linearGradient7394"
       xlink:href="#linearGradient3587-6-5-3"
       gradientUnits="userSpaceOnUse" />
    <linearGradient
       x1="13.917011"
       y1="0.88217813"
       x2="13.917011"
       y2="15.183488"
       id="linearGradient7396"
       xlink:href="#linearGradient3587-6-5-3"
       gradientUnits="userSpaceOnUse" />
    <linearGradient
       id="linearGradient5263">
      <stop
         id="stop5265"
         style="stop-color:#a0d5ff;stop-opacity:1"
         offset="0" />
      <stop
         id="stop5267"
         style="stop-color:#a0d5ff;stop-opacity:1"
         offset="1" />
    </linearGradient>
    <filter
       id="filter7554-1"
       style="color-interpolation-filters:sRGB">
      <feBlend
         id="feBlend7556-7"
         in2="BackgroundImage"
         mode="darken" />
    </filter>
    <filter
       style="color-interpolation-filters:sRGB"
       id="filter7554-5">
      <feBlend
         mode="darken"
         in2="BackgroundImage"
         id="feBlend7556-4" />
    </filter>
    <filter
       id="filter7554-6"
       style="color-interpolation-filters:sRGB">
      <feBlend
         mode="darken"
         in2="BackgroundImage"
         id="feBlend7556-6" />
    </filter>
    <filter
       style="color-interpolation-filters:sRGB"
       id="filter7554-7">
      <feBlend
         mode="darken"
         in2="BackgroundImage"
         id="feBlend7556-0" />
    </filter>
  </defs>
  <rect
     style="opacity:0;fill:#f2f2f2;fill-opacity:1;stroke:none;stroke-width:0.08333334;stroke-linecap:round;stroke-linejoin:round;stroke-miterlimit:4;stroke-dasharray:none;stroke-dashoffset:0;stroke-opacity:1;paint-order:fill markers stroke"
     id="rect863"
     width="20"
     height="20"
     x="1.1666667"
     y="2" />
  <path
     sodipodi:nodetypes="sccccssccccssccccsscccs"
     inkscape:connector-curvature="0"
     id="path839"
     d="m 11,4.9649789 c -3.443217,0 -6.886435,1.0760054 -9.89925,3.2280163 l 0.860804,0.8608042 c 6.025631,-3.9274248 12.131419,-3.9940709 18.076891,0 L 20.899249,8.1929952 C 17.886434,6.0409843 14.443216,4.9649789 11,4.9649789 Z M 11,9 C 8.417587,9 5.835174,9.8608038 3.683163,11.582413 l 0.860805,0.860803 c 4.304021,-3.0128141 8.608043,-3.0397151 12.912064,0 l 0.860804,-0.860803 C 16.164825,9.8608038 13.582413,9 11,9 Z m 0,3.658418 c -1.721609,0 -3.443217,0.645602 -4.734424,1.936809 l 0.860804,0.860799 c 2.582413,-2.354158 5.164825,-2.152006 7.74724,5e-6 l 0.860803,-0.860809 C 14.443216,13.304016 12.721609,12.658418 11,12.658418 Z m 0,3.873619 c -0.645604,0 -1.291207,0.215201 -1.721609,0.645603 L 11,19.329651 12.721609,17.17764 C 12.291205,16.747238 11.645603,16.532037 11,16.532037 Z"
     style="opacity:1;fill:#f2f2f2;fill-opacity:0.43137255;stroke-width:1.21548676;stroke-miterlimit:4;stroke-dasharray:none" />
  <path
     style="opacity:1;fill:#f2f2f2;fill-opacity:1;stroke-width:1.21548676;stroke-miterlimit:4;stroke-dasharray:none"
     d="m 11,12.658418 c -1.721609,0 -3.443217,0.645602 -4.734424,1.936809 l 0.860804,0.860799 c 2.582413,-2.354158 5.164825,-2.152006 7.74724,5e-6 l 0.860803,-0.860809 C 14.443216,13.304016 12.721609,12.658418 11,12.658418 Z m 0,3.873619 c -0.645604,0 -1.291207,0.215201 -1.721609,0.645603 L 11,19.329651 12.721609,17.17764 C 12.291205,16.747238 11.645603,16.532037 11,16.532037 Z"
     id="path1552"
     inkscape:connector-curvature="0"
     sodipodi:nodetypes="sccccsscccs" />
</svg>

<svg width="22" height="22" enable-background="new" version="1.1" xmlns="http://www.w3.org/2000/svg">
<rect x="1.1667" y="2" width="20" height="20" opacity="0" stroke-width=".083333" style="paint-order:fill markers stroke"/>
<path d="m11 4.965c-3.4432 0-6.8864 1.076-9.8992 3.228l0.8608 0.8608c6.0256-3.9274 12.131-3.9941 18.077 0l0.8608-0.8608c-3.0128-2.152-6.456-3.228-9.8992-3.228zm0 4.035c-2.5824 0-5.1648 0.8608-7.3168 2.5824l0.8608 0.8608c4.304-3.0128 8.608-3.0397 12.912 0l0.8608-0.8608c-2.152-1.7216-4.7344-2.5824-7.3168-2.5824zm0 3.6584c-1.7216 0-3.4432 0.6456-4.7344 1.9368l0.8608 0.8608c2.5824-2.3542 5.1648-2.152 7.7472 5e-6l0.8608-0.86081c-1.2912-1.2912-3.0128-1.9368-4.7344-1.9368zm0 3.8736c-0.6456 0-1.2912 0.2152-1.7216 0.6456l1.7216 2.152 1.7216-2.152c-0.4304-0.4304-1.076-0.6456-1.7216-0.6456z" fill="#f2f2f2" fill-opacity=".43137" stroke-width="1.2155"/>
<path d="m11 12.658c-1.7216 0-3.4432 0.6456-4.7344 1.9368l0.8608 0.8608c2.5824-2.3542 5.1648-2.152 7.7472 5e-6l0.8608-0.86081c-1.2912-1.2912-3.0128-1.9368-4.7344-1.9368zm0 3.8736c-0.6456 0-1.2912 0.2152-1.7216 0.6456l1.7216 2.152 1.7216-2.152c-0.4304-0.4304-1.076-0.6456-1.7216-0.6456z" fill="#f2f2f2" stroke-width="1.2155"/>
</svg>
